build/assets/img/phone-icon.svg

<svg width="19" height="21" viewBox="0 0 19 21" fill="none" xmlns="http://www.w3.org/2000/svg">
<path d="M17.1088 13.6005C15.9883 13.6005 14.8881 13.4161 13.8455 13.0534C13.3346 12.87 12.7066 13.0382 12.3948 13.3753L10.3369 15.0106C7.95036 13.6696 6.48029 12.1226 5.22374 9.62933L6.73151 7.51958C7.12324 7.10778 7.26374 6.50624 7.0954 5.94183C6.74938 4.83859 6.57361 3.68102 6.57361 2.50102C6.57366 1.64858 5.91483 0.955078 5.10506 0.955078H1.74398C0.934214 0.955078 0.275391 1.64858 0.275391 2.50097C0.275391 12.2716 7.82677 20.2204 17.1088 20.2204C17.9186 20.2204 18.5774 19.5269 18.5774 18.6745V15.1464C18.5774 14.294 17.9185 13.6005 17.1088 13.6005Z" fill="white"/>
</svg>

<svg width="19" height="21" fill="none" xmlns="http://www.w3.org/2000/svg"><path d="M17.109 13.6c-1.12 0-2.22-.184-3.264-.547-.51-.183-1.138-.015-1.45.322l-2.058 1.636C7.95 13.67 6.48 12.123 5.224 9.629l1.508-2.11a1.615 1.615 0 00.363-1.577A11.483 11.483 0 016.574 2.5c0-.852-.66-1.546-1.469-1.546H1.744C.934.955.275 1.65.275 2.501c0 9.77 7.552 17.72 16.834 17.72.81 0 1.468-.694 1.468-1.547v-3.528c0-.852-.659-1.546-1.468-1.546z" fill="#fff"/></svg>
